html/assets/images/dynamic/business-enabler-5.svg

<svg width="72" height="69" viewBox="0 0 72 69" fill="none" xmlns="http://www.w3.org/2000/svg">
<path d="M19.5063 38.0125H1V51.8922H19.5063V38.0125Z" stroke="#00999A" stroke-width="2" stroke-linecap="round" stroke-linejoin="round"/>
<path d="M10.9472 51.8923L5.75 67.3142" stroke="#00999A" stroke-width="2" stroke-linecap="round" stroke-linejoin="round"/>
<path d="M22.7137 13.3375C26.1206 13.3375 28.8824 10.5757 28.8824 7.16876C28.8824 3.76185 26.1206 1 22.7137 1C19.3068 1 16.5449 3.76185 16.5449 7.16876C16.5449 10.5757 19.3068 13.3375 22.7137 13.3375Z" stroke="#00999A" stroke-width="2" stroke-miterlimit="10"/>
<path d="M24.2559 28.821L33.3856 33.864" stroke="#00999A" stroke-width="2" stroke-linecap="round" stroke-linejoin="round"/>
<path d="M11.9189 67.3142L17.9026 51.8923" stroke="#00999A" stroke-width="2" stroke-linecap="round" stroke-linejoin="round"/>
<path d="M36.4706 58.0611L34.8667 44.1814L24.133 38.0126V22.5907C24.133 19.6914 22.1745 19.3059 19.5682 17.9642C17.0698 16.6842 14.6177 16.4683 11.888 17.9642C10.2687 18.8586 8.77282 19.9228 8.77282 19.9228C7.72414 20.8018 7.16895 21.8351 7.16895 23.2076V37.9972M19.5219 44.4744L28.7288 48.0215L30.2247 58.0457M13.3377 24.9811V37.0565C13.3377 37.3649 13.3377 37.6888 13.3685 37.9972" stroke="#00999A" stroke-width="2" stroke-linecap="round" stroke-linejoin="round"/>
<path d="M35.7617 51.9384C43.8736 46.8338 49.9344 41.4361 53.4044 32.4451L45.9247 29.7155L68.379 13.3374L71.0007 39.5084C71.0007 39.5084 66.3588 38.0587 64.6007 37.3339C59.3264 50.1649 40.0798 67.314 18.335 67.1444" stroke="#00999A" stroke-width="2" stroke-linecap="round" stroke-linejoin="round"/>
<path d="M14.5557 60.5131C19.6912 59.3718 24.8883 57.6292 29.8079 55.2388" stroke="#00999A" stroke-width="2" stroke-linecap="round" stroke-linejoin="round"/>
<path d="M1 62.6878C3.15907 62.6878 5.3644 62.1788 7.616 61.6699" stroke="#00999A" stroke-width="2" stroke-linecap="round" stroke-linejoin="round"/>
</svg>

<svg width="72" height="69" fill="none" xmlns="http://www.w3.org/2000/svg"><path d="M19.506 38.013H1v13.88h18.506v-13.88zm-8.559 13.879L5.75 67.314" stroke="#00999A" stroke-width="2" stroke-linecap="round" stroke-linejoin="round"/><path d="M22.714 13.338a6.169 6.169 0 100-12.338 6.169 6.169 0 000 12.338z" stroke="#00999A" stroke-width="2" stroke-miterlimit="10"/><path d="M24.256 28.821l9.13 5.043m-21.467 33.45l5.984-15.422m18.567 6.169l-1.603-13.88-10.734-6.168V22.59c0-2.9-1.959-3.285-4.565-4.627-2.498-1.28-4.95-1.496-7.68 0-1.62.895-3.115 1.959-3.115 1.959-1.049.879-1.604 1.912-1.604 3.285v14.79m12.353 6.476l9.207 3.548 1.496 10.024M13.338 24.98v12.075c0 .309 0 .633.03.941" stroke="#00999A" stroke-width="2" stroke-linecap="round" stroke-linejoin="round"/><path d="M35.762 51.938c8.112-5.104 14.172-10.502 17.642-19.493l-7.48-2.73L68.38 13.337l2.622 26.171s-4.642-1.45-6.4-2.174c-5.275 12.83-24.521 29.98-46.266 29.81m-3.78-6.631c5.135-1.141 10.332-2.884 15.252-5.274M1 62.688c2.16 0 4.364-.51 6.616-1.018" stroke="#00999A" stroke-width="2" stroke-linecap="round" stroke-linejoin="round"/></svg>
